icon-themes/sifr_svg/cmd/lc_circle.svg

<svg viewBox="0 0 24 24" xmlns="http://www.w3.org/2000/svg"><g fill="#555753"><path d="m12 2a10 10 0 0 0 -10 10 10 10 0 0 0 10 10 10 10 0 0 0 10-10 10 10 0 0 0 -10-10zm0 2a8 8 0 0 1 8 8 8 8 0 0 1 -8 8 8 8 0 0 1 -8-8 8 8 0 0 1 8-8z"/><path d="m12 4a8 8 0 0 0 -8 8 8 8 0 0 0 8 8 8 8 0 0 0 8-8 8 8 0 0 0 -8-8z" opacity=".35"/></g></svg>

<svg xmlns="http://www.w3.org/2000/svg" viewBox="0 0 24 24">
  <path
     style="fill:#555753"
     d="M 12,2 A 10,10 0 0 0 2,12 10,10 0 0 0 12,22 10,10 0 0 0 22,12 10,10 0 0 0 12,2 Z m 0,2 a 8,8 0 0 1 8,8 8,8 0 0 1 -8,8 8,8 0 0 1 -8,-8 8,8 0 0 1 8,-8 z"
     />
  <path
     style="opacity:0.35;fill:#555753"
     d="M 12 4 A 8 8 0 0 0 4 12 A 8 8 0 0 0 12 20 A 8 8 0 0 0 20 12 A 8 8 0 0 0 12 4 z "
     />
</svg>
